SVG_Azure_Grouped/Office365/O365 - Dataverse.svg

<?xml version="1.0" encoding="UTF-8" standalone="no"?>
<!-- Generated by Microsoft Visio, SVG Export O365 - Dataverse.svg Page-1 -->

<svg
   xmlns:dc="http://purl.org/dc/elements/1.1/"
   xmlns:cc="http://creativecommons.org/ns#"
   xmlns:rdf="http://www.w3.org/1999/02/22-rdf-syntax-ns#"
   xmlns:svg="http://www.w3.org/2000/svg"
   xmlns="http://www.w3.org/2000/svg"
   xmlns:sodipodi="http://sodipodi.sourceforge.net/DTD/sodipodi-0.dtd"
   xmlns:inkscape="http://www.inkscape.org/namespaces/inkscape"
   width="0.72703898in"
   height="0.54544377in"
   viewBox="0 0 52.346805 39.27195"
   xml:space="preserve"
   class="st5"
   version="1.1"
   id="svg68"
   sodipodi:docname="O365 - Dataverse.svg"
   style="font-size:12px;overflow:visible;color-interpolation-filters:sRGB;fill:none;fill-rule:evenodd;stroke-linecap:square;stroke-miterlimit:3"
   inkscape:version="0.92.5 (2060ec1f9f, 2020-04-08)"><metadata
   id="metadata72"><rdf:RDF><cc:Work
       rdf:about=""><dc:format>image/svg+xml</dc:format><dc:type
         rdf:resource="http://purl.org/dc/dcmitype/StillImage" /></cc:Work></rdf:RDF></metadata><sodipodi:namedview
   pagecolor="#ffffff"
   bordercolor="#666666"
   borderopacity="1"
   objecttolerance="10"
   gridtolerance="10"
   guidetolerance="10"
   inkscape:pageopacity="0"
   inkscape:pageshadow="2"
   inkscape:window-width="640"
   inkscape:window-height="480"
   id="namedview70"
   showgrid="false"
   inkscape:zoom="2.1888819"
   inkscape:cx="34.892177"
   inkscape:cy="6.389759"
   inkscape:window-x="0"
   inkscape:window-y="0"
   inkscape:window-maximized="0"
   inkscape:current-layer="svg68" />
	<style
   type="text/css"
   id="style2">
	<![CDATA[
		.st1 {fill:url(#grad0-9);stroke:none;stroke-linecap:butt;stroke-width:5.95138}
		.st2 {fill:url(#grad0-14);stroke:none;stroke-linecap:butt;stroke-width:5.95138}
		.st3 {fill:#088142;stroke:none;stroke-linecap:butt;stroke-width:5.95138}
		.st4 {fill:url(#grad0-22);stroke:none;stroke-linecap:butt;stroke-width:5.95138}
		.st5 {fill:none;fill-rule:evenodd;font-size:12px;overflow:visible;stroke-linecap:square;stroke-miterlimit:3}
	]]>
	</style>

	<defs
   id="Patterns_And_Gradients">
		<linearGradient
   id="grad0-9"
   x1="2.1270088"
   y1="41.887373"
   x2="41.806708"
   y2="41.887373"
   gradientTransform="scale(1.0236571,0.97688963)"
   gradientUnits="userSpaceOnUse">
			<stop
   offset="0"
   stop-color="#096738"
   stop-opacity="1"
   id="stop4" />
			<stop
   offset="1"
   stop-color="#0a4c2d"
   stop-opacity="1"
   id="stop6" />
		</linearGradient>
		<linearGradient
   id="grad0-14"
   x1="1.6157051"
   y1="41.427782"
   x2="41.295791"
   y2="41.427782"
   gradientTransform="scale(1.0235772,0.97696587)"
   gradientUnits="userSpaceOnUse">
			<stop
   offset="0"
   stop-color="#4ed062"
   stop-opacity="1"
   id="stop9" />
			<stop
   offset="1"
   stop-color="#209b4e"
   stop-opacity="1"
   id="stop11" />
		</linearGradient>
		<linearGradient
   id="grad0-22"
   x1="1.2926667"
   y1="62.250453"
   x2="19.499378"
   y2="62.250453"
   gradientTransform="scale(1.0109636,0.98915533)"
   gradientUnits="userSpaceOnUse">
			<stop
   offset="0"
   stop-color="#66eb6e"
   stop-opacity="1"
   id="stop14" />
			<stop
   offset="1"
   stop-color="#9fe0a2"
   stop-opacity="1"
   id="stop16" />
		</linearGradient>
	</defs>
	<g
   id="g66"
   transform="translate(-7.8466177,-5.9519703)">
		<title
   id="title20">Page-1</title>
		<g
   id="group20958-1"
   transform="translate(5.66929,-34.0157)">
			<title
   id="title22">O365 - Dataverse.20958</title>
			<g
   id="group20959-2">
				<title
   id="title24">Page-1</title>
				<g
   id="group20960-3">
					<title
   id="title26">g65.57</title>
					<g
   id="group20961-4">
						<title
   id="title28">g63</title>
						<g
   id="group20962-5"
   transform="translate(0,-0.95167)">
							<title
   id="title30">path45</title>
							<g
   id="shape20963-6">
								<title
   id="title32">Sheet.20963</title>
								<path
   d="m 23.75,68.35 c 7.1,4.01 13.48,2.47 17.09,-3.65 C 44.45,58.59 43.09,50.25 36.53,45.04 29.34,39.32 18.09,39.3 9.79,46.59 2.33,53.15 0,64.7 4.38,74.71 v 0 c 0.71,1.57 1.91,2.94 3.54,3.86 4.05,2.29 9.25,0.93 11.59,-3.04 h 0.01 z"
   class="st1"
   id="path34"
   inkscape:connector-curvature="0"
   style="fill:url(#grad0-9);stroke:none;stroke-width:5.95137978;stroke-linecap:butt" />
							</g>
						</g>
						<g
   id="group20964-10"
   transform="translate(12.2547)">
							<title
   id="title38">path47</title>
							<g
   id="shape20965-11">
								<title
   id="title40">Sheet.20965</title>
								<path
   d="m 40.08,45.49 h 0.01 c 4.35,10 2.01,21.53 -5.43,28.07 -8.3,7.3 -19.55,7.28 -26.75,1.56 C 1.36,69.91 0,61.57 3.61,55.46 c 3.6,-6.12 9.98,-7.67 17.08,-3.65 l 4.24,-7.18 v 0 c 2.35,-3.97 7.54,-5.34 11.6,-3.04 1.65,0.93 2.85,2.32 3.55,3.9 z"
   class="st2"
   id="path42"
   inkscape:connector-curvature="0"
   style="fill:url(#grad0-14);stroke:none;stroke-width:5.95137978;stroke-linecap:butt" />
							</g>
						</g>
						<g
   id="group20966-15"
   transform="translate(12.379,-6.28615)">
							<title
   id="title46">path49</title>
							<g
   id="shape20967-16">
								<title
   id="title48">Sheet.20967</title>
								<path
   d="M 20.57,58.09 C 13.47,54.08 7.09,55.63 3.49,61.74 0,67.65 1.15,75.63 7.14,80.86 l 4.23,-7.17 c 7.1,4.01 13.48,2.46 17.09,-3.65 3.49,-5.91 2.34,-13.89 -3.65,-19.12 z"
   class="st3"
   id="path50"
   inkscape:connector-curvature="0"
   style="fill:#088142;stroke:none;stroke-width:5.95137978;stroke-linecap:butt" />
							</g>
						</g>
						<g
   id="group20968-18"
   transform="translate(17.8429,-10.9756)">
							<title
   id="title54">path61</title>
							<g
   id="shape20969-19">
								<title
   id="title56">Sheet.20969</title>
								<path
   d="m 18.48,75.08 c -2.54,4.31 -8.17,5.78 -12.57,3.3 -4.4,-2.49 -5.91,-8 -3.37,-12.3 2.54,-4.31 8.17,-5.78 12.57,-3.3 4.4,2.49 5.91,7.99 3.37,12.3 z"
   class="st4"
   id="path58"
   inkscape:connector-curvature="0"
   style="fill:url(#grad0-22);stroke:none;stroke-width:5.95137978;stroke-linecap:butt" />
							</g>
						</g>
					</g>
				</g>
			</g>
		</g>
	</g>
</svg>

<?xml version="1.0" encoding="UTF-8" standalone="no"?>
<!DOCTYPE svg PUBLIC "-//W3C//DTD SVG 1.1//EN" "http://www.w3.org/Graphics/SVG/1.1/DTD/svg11.dtd">
<!-- Generated by Microsoft Visio, SVG Export O365 - Dataverse.svg Page-1 -->
<svg xmlns="http://www.w3.org/2000/svg" xmlns:xlink="http://www.w3.org/1999/xlink" xmlns:ev="http://www.w3.org/2001/xml-events"
		width="0.944882in" height="1.1231in" viewBox="0 0 68.0315 80.8632" xml:space="preserve" color-interpolation-filters="sRGB"
		class="st5">
	<style type="text/css">
	<![CDATA[
		.st1 {fill:url(#grad0-9);stroke:none;stroke-linecap:butt;stroke-width:5.95138}
		.st2 {fill:url(#grad0-14);stroke:none;stroke-linecap:butt;stroke-width:5.95138}
		.st3 {fill:#088142;stroke:none;stroke-linecap:butt;stroke-width:5.95138}
		.st4 {fill:url(#grad0-22);stroke:none;stroke-linecap:butt;stroke-width:5.95138}
		.st5 {fill:none;fill-rule:evenodd;font-size:12px;overflow:visible;stroke-linecap:square;stroke-miterlimit:3}
	]]>
	</style>

	<defs id="Patterns_And_Gradients">
		<linearGradient id="grad0-9" x1="0" y1="0" x2="1" y2="0" gradientTransform="rotate(83.988870786996 0.5 0.5)">
			<stop offset="0" stop-color="#096738" stop-opacity="1"/>
			<stop offset="1" stop-color="#0a4c2d" stop-opacity="1"/>
		</linearGradient>
		<linearGradient id="grad0-14" x1="0" y1="0" x2="1" y2="0" gradientTransform="rotate(78.679692217555 0.5 0.5)">
			<stop offset="0" stop-color="#4ed062" stop-opacity="1"/>
			<stop offset="1" stop-color="#209b4e" stop-opacity="1"/>
		</linearGradient>
		<linearGradient id="grad0-22" x1="0" y1="0" x2="1" y2="0" gradientTransform="rotate(-107.87903818773 0.5 0.5)">
			<stop offset="0" stop-color="#66eb6e" stop-opacity="1"/>
			<stop offset="1" stop-color="#9fe0a2" stop-opacity="1"/>
		</linearGradient>
	</defs>
	<g>
		<title>Page-1</title>
		<g id="group20492-1" transform="translate(5.66929,-34.0157)">
			<title>O365 - Dataverse.20492</title>
			<g id="group20493-2">
				<title>Page-1</title>
				<g id="group20494-3">
					<title>g65.57</title>
					<g id="group20495-4">
						<title>g63</title>
						<g id="group20496-5" transform="translate(-2.79776E-13,-0.95167)">
							<title>path45</title>
							<g id="shape20497-6">
								<title>Sheet.20497</title>
								<path d="M23.75 68.35 C30.85 72.36 37.23 70.82 40.84 64.7 C44.45 58.59 43.09 50.25 36.53 45.04 C29.34
											 39.32 18.09 39.3 9.79 46.59 C2.33 53.15 0 64.7 4.38 74.71 L4.38 74.71 C5.09 76.28 6.29
											 77.65 7.92 78.57 C11.97 80.86 17.17 79.5 19.51 75.53 L19.52 75.53 L23.75 68.35 Z"
										class="st1"/>
							</g>
						</g>
						<g id="group20498-10" transform="translate(12.2547,0)">
							<title>path47</title>
							<g id="shape20499-11">
								<title>Sheet.20499</title>
								<path d="M40.08 45.49 L40.09 45.49 C44.44 55.49 42.1 67.02 34.66 73.56 C26.36 80.86 15.11 80.84 7.91
											 75.12 C1.36 69.91 0 61.57 3.61 55.46 C7.21 49.34 13.59 47.79 20.69 51.81 L24.93 44.63
											 L24.93 44.63 C27.28 40.66 32.47 39.29 36.53 41.59 C38.18 42.52 39.38 43.91 40.08 45.49
											 Z" class="st2"/>
							</g>
						</g>
						<g id="group20500-15" transform="translate(12.379,-6.28615)">
							<title>path49</title>
							<g id="shape20501-16">
								<title>Sheet.20501</title>
								<path d="M20.57 58.09 C13.47 54.08 7.09 55.63 3.49 61.74 C0 67.65 1.15 75.63 7.14 80.86 L11.37 73.69
											 C18.47 77.7 24.85 76.15 28.46 70.04 C31.95 64.13 30.8 56.15 24.81 50.92 L20.57 58.09
											 Z" class="st3"/>
							</g>
						</g>
						<g id="group20502-18" transform="translate(17.8429,-10.9756)">
							<title>path61</title>
							<g id="shape20503-19">
								<title>Sheet.20503</title>
								<path d="M18.48 75.08 C15.94 79.39 10.31 80.86 5.91 78.38 C1.51 75.89 0 70.38 2.54 66.08 C5.08 61.77
											 10.71 60.3 15.11 62.78 C19.51 65.27 21.02 70.77 18.48 75.08 Z" class="st4"/>
							</g>
						</g>
					</g>
				</g>
			</g>
		</g>
	</g>
</svg>
